X:4819
L:1/8
Q:1/8=128
M:4/4
K:F
|: c | A>F F>c A/B/c/A/ F>c | f>c A/B/c/A/ B<G G>c | A>F F>c A/B/c/A/ F>c | f2 a/g/f/e/ f<F Fc | 
 A>F F>c A/B/c/A/ F>c | f>c A/B/c/A/ B<G G>c | A>F F>c A/B/c/A/ F>c | f2 a/g/f/e/ f<F Fc | 
 f2 a/g/f/e/ f>d e>c | e/f/g f/g/a g>d d>e | f2 a/g/f g>d e>c | f<d c>B A<F F>c | 
 f2 a/g/f/e/ f>d e>c | e/f/g f/g/a g>d d>g | a/g/f g/f/d f/d/c d/c/B | A/B/c/A/ G/A/B/G/ A<F F :|

